app/assets/images/icons/active/hotel--line.svg

<?xml version="1.0" encoding="UTF-8" standalone="no"?>
<svg width="32px" height="232px" viewBox="0 0 32 232" version="1.1" xmlns="http://www.w3.org/2000/svg" xmlns:xlink="http://www.w3.org/1999/xlink" xmlns:sketch="http://www.bohemiancoding.com/sketch/ns">
    <title>hotel--line</title>
    <description>Created with Sketch (http://www.bohemiancoding.com/sketch)</description>
    <defs></defs>
    <g id="Points-of-interest" stroke="none" stroke-width="1" fill="none" fill-rule="evenodd" sketch:type="MSPage">
        <path d="M28.7716846,135.327156 C27.8257205,133.639317 26.1471078,132.506484 25.1752269,132.506484 L16.418331,132.506484 C15.9568122,131.752299 15.1533906,131.279247 14.2482954,131.279247 C13.6442341,131.279247 13.0860256,131.524072 12.6354716,131.908945 C11.9815702,131.139199 11.0356061,130.640213 9.97301636,130.640213 C9.36496781,130.640213 8.8007785,130.814495 8.29839084,131.098741 L8.29839084,130.241854 C8.29839084,128.455463 6.99557207,127 5.39570662,127 C3.79883157,127 2.5,128.455463 2.5,130.241854 L2.5,145.770595 C2.5,147.549724 3.79883157,149 5.39570662,149 C6.99557207,149 8.29839084,147.549724 8.29839084,145.770595 L8.29839084,145.311029 L23.5464542,145.311029 L23.5464542,145.718725 C23.5464542,147.497854 24.8482762,148.94813 26.4511321,148.94813 C28.0529911,148.94813 29.3558099,147.497854 29.3558099,145.718725 L29.3558099,142.351346 C29.3906979,141.600273 29.2431714,140.985099 28.9451279,140.509973 C29.735591,138.777526 29.6847542,136.953789 28.7716846,135.327156 C28.7716846,135.327156 29.6847542,136.953789 28.7716846,135.327156 L28.7716846,135.327156 L28.7716846,135.327156 Z M9.97301636,132.602961 C10.9030316,132.602961 11.6606003,133.394492 11.6606003,134.368605 C11.6606003,135.33338 10.9030316,136.118687 9.97301636,136.118687 C9.04399792,136.118687 8.28842284,135.33338 8.28842284,134.368605 C8.28842284,133.394492 9.04399792,132.602961 9.97301636,132.602961 C9.97301636,132.602961 9.04399792,132.602961 9.97301636,132.602961 L9.97301636,132.602961 L9.97301636,132.602961 Z M27.4708594,145.718725 C27.4708594,146.417928 27.0133278,146.985382 26.4511321,146.985382 C25.8879396,146.985382 25.4304079,146.417928 25.4304079,145.718725 L25.4304079,143.348281 L6.41344034,143.348281 L6.41344034,145.770595 C6.41344034,146.46876 5.95590873,147.036214 5.39570662,147.036214 C4.83849492,147.036214 4.38495051,146.46876 4.38495051,145.770595 L4.38495051,130.241854 C4.38495051,129.546801 4.84646932,128.961711 5.39570662,128.961711 C5.94594072,128.961711 6.41344034,129.546801 6.41344034,130.241854 L6.41344034,134.263828 C6.41144674,134.299099 6.40347233,134.332296 6.40347233,134.368605 C6.40347233,134.404913 6.41144674,134.437073 6.41344034,134.474419 L6.41344034,138.697647 C6.41144674,138.732918 6.40347233,138.765078 6.40347233,138.802424 C6.40347233,138.838732 6.41144674,138.871929 6.41344034,138.908238 L6.41344034,141.447777 L27.1269631,141.447777 C27.2256464,141.447777 27.292432,141.470599 27.3462593,141.53388 C27.3811473,141.576413 27.4967762,141.750696 27.4708594,142.349271 L27.4708594,145.718725 L27.4708594,145.718725 L27.4708594,145.718725 L27.4708594,145.718725 Z M27.3382849,139.476729 L8.97721226,139.476729 C8.56453669,139.476729 8.28842284,139.20597 8.28842284,138.802424 C8.28842284,138.418588 8.59643431,138.106333 9.00312908,138.106333 L9.86336826,138.080398 L9.86336826,138.068987 C9.90024989,138.068987 9.93513793,138.080398 9.97301636,138.080398 C11.9426949,138.080398 13.544554,136.416419 13.544554,134.368605 C13.544554,134.256566 13.5236212,134.15179 13.5136532,134.041826 L13.5256148,134.041826 C13.529602,133.639317 13.8874535,133.240958 14.2482954,133.240958 C14.5612909,133.240958 14.8284336,133.447399 14.9141584,133.756543 L15.1085346,134.469232 L25.1443261,134.467157 C25.4423696,134.51384 26.6534826,135.240015 27.282464,136.584477 C27.7200596,137.516056 27.738002,138.487056 27.3382849,139.476729 L27.3382849,139.476729 Z M27.3382849,139.476729" id="hotel-line--lp-blue" fill="#206FAC" sketch:type="MSShapeGroup"></path>
        <path d="M28.7716846,95.3271561 C27.8257205,93.6393172 26.1471078,92.5064837 25.1752269,92.5064837 L16.418331,92.5064837 C15.9568122,91.7522988 15.1533906,91.2792474 14.2482954,91.2792474 C13.6442341,91.2792474 13.0860256,91.5240722 12.6354716,91.9089452 C11.9815702,91.1391993 11.0356061,90.6402131 9.97301636,90.6402131 C9.36496781,90.6402131 8.8007785,90.8144952 8.29839084,91.098741 L8.29839084,90.2418541 C8.29839084,88.4554628 6.99557207,87 5.39570662,87 C3.79883157,87 2.5,88.4554628 2.5,90.2418541 L2.5,105.770595 C2.5,107.549724 3.79883157,109 5.39570662,109 C6.99557207,109 8.29839084,107.549724 8.29839084,105.770595 L8.29839084,105.311029 L23.5464542,105.311029 L23.5464542,105.718725 C23.5464542,107.497854 24.8482762,108.94813 26.4511321,108.94813 C28.0529911,108.94813 29.3558099,107.497854 29.3558099,105.718725 L29.3558099,102.351346 C29.3906979,101.600273 29.2431714,100.985099 28.9451279,100.509973 C29.735591,98.7775263 29.6847542,96.9537888 28.7716846,95.3271561 C28.7716846,95.3271561 29.6847542,96.9537888 28.7716846,95.3271561 L28.7716846,95.3271561 L28.7716846,95.3271561 Z M9.97301636,92.6029613 C10.9030316,92.6029613 11.6606003,93.3944924 11.6606003,94.3686047 C11.6606003,95.3333805 10.9030316,96.1186872 9.97301636,96.1186872 C9.04399792,96.1186872 8.28842284,95.3333805 8.28842284,94.3686047 C8.28842284,93.3944924 9.04399792,92.6029613 9.97301636,92.6029613 C9.97301636,92.6029613 9.04399792,92.6029613 9.97301636,92.6029613 L9.97301636,92.6029613 L9.97301636,92.6029613 Z M27.4708594,105.718725 C27.4708594,106.417928 27.0133278,106.985382 26.4511321,106.985382 C25.8879396,106.985382 25.4304079,106.417928 25.4304079,105.718725 L25.4304079,103.348281 L6.41344034,103.348281 L6.41344034,105.770595 C6.41344034,106.46876 5.95590873,107.036214 5.39570662,107.036214 C4.83849492,107.036214 4.38495051,106.46876 4.38495051,105.770595 L4.38495051,90.2418541 C4.38495051,89.5468006 4.84646932,88.9617108 5.39570662,88.9617108 C5.94594072,88.9617108 6.41344034,89.5468006 6.41344034,90.2418541 L6.41344034,94.263828 C6.41144674,94.2990994 6.40347233,94.3322959 6.40347233,94.3686047 C6.40347233,94.4049135 6.41144674,94.4370727 6.41344034,94.4744188 L6.41344034,98.697647 C6.41144674,98.7329184 6.40347233,98.7650776 6.40347233,98.8024237 C6.40347233,98.8387325 6.41144674,98.8719291 6.41344034,98.9082378 L6.41344034,101.447777 L27.1269631,101.447777 C27.2256464,101.447777 27.292432,101.470599 27.3462593,101.53388 C27.3811473,101.576413 27.4967762,101.750696 27.4708594,102.349271 L27.4708594,105.718725 L27.4708594,105.718725 L27.4708594,105.718725 L27.4708594,105.718725 Z M27.3382849,99.4767294 L8.97721226,99.4767294 C8.56453669,99.4767294 8.28842284,99.2059697 8.28842284,98.8024237 C8.28842284,98.4185882 8.59643431,98.1063328 9.00312908,98.1063328 L9.86336826,98.080398 L9.86336826,98.0689867 C9.90024989,98.0689867 9.93513793,98.080398 9.97301636,98.080398 C11.9426949,98.080398 13.544554,96.4164191 13.544554,94.3686047 C13.544554,94.2565662 13.5236212,94.1517895 13.5136532,94.0418258 L13.5256148,94.0418258 C13.529602,93.6393172 13.8874535,93.2409582 14.2482954,93.2409582 C14.5612909,93.2409582 14.8284336,93.4473994 14.9141584,93.7565427 L15.1085346,94.4692319 L25.1443261,94.4671571 C25.4423696,94.5138398 26.6534826,95.2400151 27.282464,96.5844768 C27.7200596,97.516056 27.738002,98.4870562 27.3382849,99.4767294 L27.3382849,99.4767294 Z M27.3382849,99.4767294" id="hotel-line--white" fill="#FFFFFF" sketch:type="MSShapeGroup"></path>
        <path d="M28.7716846,55.3271561 C27.8257205,53.6393172 26.1471078,52.5064837 25.1752269,52.5064837 L16.418331,52.5064837 C15.9568122,51.7522988 15.1533906,51.2792474 14.2482954,51.2792474 C13.6442341,51.2792474 13.0860256,51.5240722 12.6354716,51.9089452 C11.9815702,51.1391993 11.0356061,50.6402131 9.97301636,50.6402131 C9.36496781,50.6402131 8.8007785,50.8144952 8.29839084,51.098741 L8.29839084,50.2418541 C8.29839084,48.4554628 6.99557207,47 5.39570662,47 C3.79883157,47 2.5,48.4554628 2.5,50.2418541 L2.5,65.7705946 C2.5,67.5497241 3.79883157,69 5.39570662,69 C6.99557207,69 8.29839084,67.5497241 8.29839084,65.7705946 L8.29839084,65.3110294 L23.5464542,65.3110294 L23.5464542,65.7187249 C23.5464542,67.4978545 24.8482762,68.9481303 26.4511321,68.9481303 C28.0529911,68.9481303 29.3558099,67.4978545 29.3558099,65.7187249 L29.3558099,62.3513463 C29.3906979,61.6002735 29.2431714,60.9850993 28.9451279,60.5099731 C29.735591,58.7775263 29.6847542,56.9537888 28.7716846,55.3271561 C28.7716846,55.3271561 29.6847542,56.9537888 28.7716846,55.3271561 L28.7716846,55.3271561 L28.7716846,55.3271561 Z M9.97301636,52.6029613 C10.9030316,52.6029613 11.6606003,53.3944924 11.6606003,54.3686047 C11.6606003,55.3333805 10.9030316,56.1186872 9.97301636,56.1186872 C9.04399792,56.1186872 8.28842284,55.3333805 8.28842284,54.3686047 C8.28842284,53.3944924 9.04399792,52.6029613 9.97301636,52.6029613 C9.97301636,52.6029613 9.04399792,52.6029613 9.97301636,52.6029613 L9.97301636,52.6029613 L9.97301636,52.6029613 Z M27.4708594,65.7187249 C27.4708594,66.417928 27.0133278,66.9853822 26.4511321,66.9853822 C25.8879396,66.9853822 25.4304079,66.417928 25.4304079,65.7187249 L25.4304079,63.3482812 L6.41344034,63.3482812 L6.41344034,65.7705946 C6.41344034,66.4687603 5.95590873,67.0362145 5.39570662,67.0362145 C4.83849492,67.0362145 4.38495051,66.4687603 4.38495051,65.7705946 L4.38495051,50.2418541 C4.38495051,49.5468006 4.84646932,48.9617108 5.39570662,48.9617108 C5.94594072,48.9617108 6.41344034,49.5468006 6.41344034,50.2418541 L6.41344034,54.263828 C6.41144674,54.2990994 6.40347233,54.3322959 6.40347233,54.3686047 C6.40347233,54.4049135 6.41144674,54.4370727 6.41344034,54.4744188 L6.41344034,58.697647 C6.41144674,58.7329184 6.40347233,58.7650776 6.40347233,58.8024237 C6.40347233,58.8387325 6.41144674,58.8719291 6.41344034,58.9082378 L6.41344034,61.4477767 L27.1269631,61.4477767 C27.2256464,61.4477767 27.292432,61.4705993 27.3462593,61.5338803 C27.3811473,61.5764134 27.4967762,61.7506955 27.4708594,62.3492715 L27.4708594,65.7187249 L27.4708594,65.7187249 L27.4708594,65.7187249 L27.4708594,65.7187249 Z M27.3382849,59.4767294 L8.97721226,59.4767294 C8.56453669,59.4767294 8.28842284,59.2059697 8.28842284,58.8024237 C8.28842284,58.4185882 8.59643431,58.1063328 9.00312908,58.1063328 L9.86336826,58.080398 L9.86336826,58.0689867 C9.90024989,58.0689867 9.93513793,58.080398 9.97301636,58.080398 C11.9426949,58.080398 13.544554,56.4164191 13.544554,54.3686047 C13.544554,54.2565662 13.5236212,54.1517895 13.5136532,54.0418258 L13.5256148,54.0418258 C13.529602,53.6393172 13.8874535,53.2409582 14.2482954,53.2409582 C14.5612909,53.2409582 14.8284336,53.4473994 14.9141584,53.7565427 L15.1085346,54.4692319 L25.1443261,54.4671571 C25.4423696,54.5138398 26.6534826,55.2400151 27.282464,56.5844768 C27.7200596,57.516056 27.738002,58.4870562 27.3382849,59.4767294 L27.3382849,59.4767294 Z M27.3382849,59.4767294" id="hotel-line--body-grey" fill="#67747C" sketch:type="MSShapeGroup"></path>
        <path d="M28.7716846,15.3271561 C27.8257205,13.6393172 26.1471078,12.5064837 25.1752269,12.5064837 L16.418331,12.5064837 C15.9568122,11.7522988 15.1533906,11.2792474 14.2482954,11.2792474 C13.6442341,11.2792474 13.0860256,11.5240722 12.6354716,11.9089452 C11.9815702,11.1391993 11.0356061,10.6402131 9.97301636,10.6402131 C9.36496781,10.6402131 8.8007785,10.8144952 8.29839084,11.098741 L8.29839084,10.2418541 C8.29839084,8.45546282 6.99557207,7 5.39570662,7 C3.79883157,7 2.5,8.45546282 2.5,10.2418541 L2.5,25.7705946 C2.5,27.5497241 3.79883157,29 5.39570662,29 C6.99557207,29 8.29839084,27.5497241 8.29839084,25.7705946 L8.29839084,25.3110294 L23.5464542,25.3110294 L23.5464542,25.7187249 C23.5464542,27.4978545 24.8482762,28.9481303 26.4511321,28.9481303 C28.0529911,28.9481303 29.3558099,27.4978545 29.3558099,25.7187249 L29.3558099,22.3513463 C29.3906979,21.6002735 29.2431714,20.9850993 28.9451279,20.5099731 C29.735591,18.7775263 29.6847542,16.9537888 28.7716846,15.3271561 C28.7716846,15.3271561 29.6847542,16.9537888 28.7716846,15.3271561 L28.7716846,15.3271561 L28.7716846,15.3271561 Z M9.97301636,12.6029613 C10.9030316,12.6029613 11.6606003,13.3944924 11.6606003,14.3686047 C11.6606003,15.3333805 10.9030316,16.1186872 9.97301636,16.1186872 C9.04399792,16.1186872 8.28842284,15.3333805 8.28842284,14.3686047 C8.28842284,13.3944924 9.04399792,12.6029613 9.97301636,12.6029613 C9.97301636,12.6029613 9.04399792,12.6029613 9.97301636,12.6029613 L9.97301636,12.6029613 L9.97301636,12.6029613 Z M27.4708594,25.7187249 C27.4708594,26.417928 27.0133278,26.9853822 26.4511321,26.9853822 C25.8879396,26.9853822 25.4304079,26.417928 25.4304079,25.7187249 L25.4304079,23.3482812 L6.41344034,23.3482812 L6.41344034,25.7705946 C6.41344034,26.4687603 5.95590873,27.0362145 5.39570662,27.0362145 C4.83849492,27.0362145 4.38495051,26.4687603 4.38495051,25.7705946 L4.38495051,10.2418541 C4.38495051,9.54680058 4.84646932,8.96171076 5.39570662,8.96171076 C5.94594072,8.96171076 6.41344034,9.54680058 6.41344034,10.2418541 L6.41344034,14.263828 C6.41144674,14.2990994 6.40347233,14.3322959 6.40347233,14.3686047 C6.40347233,14.4049135 6.41144674,14.4370727 6.41344034,14.4744188 L6.41344034,18.697647 C6.41144674,18.7329184 6.40347233,18.7650776 6.40347233,18.8024237 C6.40347233,18.8387325 6.41144674,18.8719291 6.41344034,18.9082378 L6.41344034,21.4477767 L27.1269631,21.4477767 C27.2256464,21.4477767 27.292432,21.4705993 27.3462593,21.5338803 C27.3811473,21.5764134 27.4967762,21.7506955 27.4708594,22.3492715 L27.4708594,25.7187249 L27.4708594,25.7187249 L27.4708594,25.7187249 L27.4708594,25.7187249 Z M27.3382849,19.4767294 L8.97721226,19.4767294 C8.56453669,19.4767294 8.28842284,19.2059697 8.28842284,18.8024237 C8.28842284,18.4185882 8.59643431,18.1063328 9.00312908,18.1063328 L9.86336826,18.080398 L9.86336826,18.0689867 C9.90024989,18.0689867 9.93513793,18.080398 9.97301636,18.080398 C11.9426949,18.080398 13.544554,16.4164191 13.544554,14.3686047 C13.544554,14.2565662 13.5236212,14.1517895 13.5136532,14.0418258 L13.5256148,14.0418258 C13.529602,13.6393172 13.8874535,13.2409582 14.2482954,13.2409582 C14.5612909,13.2409582 14.8284336,13.4473994 14.9141584,13.7565427 L15.1085346,14.4692319 L25.1443261,14.4671571 C25.4423696,14.5138398 26.6534826,15.2400151 27.282464,16.5844768 C27.7200596,17.516056 27.738002,18.4870562 27.3382849,19.4767294 L27.3382849,19.4767294 Z M27.3382849,19.4767294" id="hotel-line--title-grey" fill="#3B444F" sketch:type="MSShapeGroup"></path>
        <path d="M28.7716846,175.327156 C27.8257205,173.639317 26.1471078,172.506484 25.1752269,172.506484 L16.418331,172.506484 C15.9568122,171.752299 15.1533906,171.279247 14.2482954,171.279247 C13.6442341,171.279247 13.0860256,171.524072 12.6354716,171.908945 C11.9815702,171.139199 11.0356061,170.640213 9.97301636,170.640213 C9.36496781,170.640213 8.8007785,170.814495 8.29839084,171.098741 L8.29839084,170.241854 C8.29839084,168.455463 6.99557207,167 5.39570662,167 C3.79883157,167 2.5,168.455463 2.5,170.241854 L2.5,185.770595 C2.5,187.549724 3.79883157,189 5.39570662,189 C6.99557207,189 8.29839084,187.549724 8.29839084,185.770595 L8.29839084,185.311029 L23.5464542,185.311029 L23.5464542,185.718725 C23.5464542,187.497854 24.8482762,188.94813 26.4511321,188.94813 C28.0529911,188.94813 29.3558099,187.497854 29.3558099,185.718725 L29.3558099,182.351346 C29.3906979,181.600273 29.2431714,180.985099 28.9451279,180.509973 C29.735591,178.777526 29.6847542,176.953789 28.7716846,175.327156 C28.7716846,175.327156 29.6847542,176.953789 28.7716846,175.327156 L28.7716846,175.327156 L28.7716846,175.327156 Z M9.97301636,172.602961 C10.9030316,172.602961 11.6606003,173.394492 11.6606003,174.368605 C11.6606003,175.33338 10.9030316,176.118687 9.97301636,176.118687 C9.04399792,176.118687 8.28842284,175.33338 8.28842284,174.368605 C8.28842284,173.394492 9.04399792,172.602961 9.97301636,172.602961 C9.97301636,172.602961 9.04399792,172.602961 9.97301636,172.602961 L9.97301636,172.602961 L9.97301636,172.602961 Z M27.4708594,185.718725 C27.4708594,186.417928 27.0133278,186.985382 26.4511321,186.985382 C25.8879396,186.985382 25.4304079,186.417928 25.4304079,185.718725 L25.4304079,183.348281 L6.41344034,183.348281 L6.41344034,185.770595 C6.41344034,186.46876 5.95590873,187.036214 5.39570662,187.036214 C4.83849492,187.036214 4.38495051,186.46876 4.38495051,185.770595 L4.38495051,170.241854 C4.38495051,169.546801 4.84646932,168.961711 5.39570662,168.961711 C5.94594072,168.961711 6.41344034,169.546801 6.41344034,170.241854 L6.41344034,174.263828 C6.41144674,174.299099 6.40347233,174.332296 6.40347233,174.368605 C6.40347233,174.404913 6.41144674,174.437073 6.41344034,174.474419 L6.41344034,178.697647 C6.41144674,178.732918 6.40347233,178.765078 6.40347233,178.802424 C6.40347233,178.838732 6.41144674,178.871929 6.41344034,178.908238 L6.41344034,181.447777 L27.1269631,181.447777 C27.2256464,181.447777 27.292432,181.470599 27.3462593,181.53388 C27.3811473,181.576413 27.4967762,181.750696 27.4708594,182.349271 L27.4708594,185.718725 L27.4708594,185.718725 L27.4708594,185.718725 L27.4708594,185.718725 Z M27.3382849,179.476729 L8.97721226,179.476729 C8.56453669,179.476729 8.28842284,179.20597 8.28842284,178.802424 C8.28842284,178.418588 8.59643431,178.106333 9.00312908,178.106333 L9.86336826,178.080398 L9.86336826,178.068987 C9.90024989,178.068987 9.93513793,178.080398 9.97301636,178.080398 C11.9426949,178.080398 13.544554,176.416419 13.544554,174.368605 C13.544554,174.256566 13.5236212,174.15179 13.5136532,174.041826 L13.5256148,174.041826 C13.529602,173.639317 13.8874535,173.240958 14.2482954,173.240958 C14.5612909,173.240958 14.8284336,173.447399 14.9141584,173.756543 L15.1085346,174.469232 L25.1443261,174.467157 C25.4423696,174.51384 26.6534826,175.240015 27.282464,176.584477 C27.7200596,177.516056 27.738002,178.487056 27.3382849,179.476729 L27.3382849,179.476729 Z M27.3382849,179.476729" id="hotel-line--purple" fill="#BF538D" sketch:type="MSShapeGroup"></path>
    </g>
</svg>

<svg width="32" height="232" viewBox="0 0 32 232" xmlns="http://www.w3.org/2000/svg" xmlns:sketch="http://www.bohemiancoding.com/sketch/ns"><title>hotel--line</title><g sketch:type="MSPage" fill="none"><path d="M28.772 135.327c-.946-1.688-2.625-2.821-3.596-2.821h-8.757c-.462-.754-1.265-1.227-2.17-1.227-.604 0-1.162.245-1.613.63-.654-.77-1.6-1.269-2.662-1.269-.608 0-1.172.174-1.675.459v-.857c0-1.786-1.303-3.242-2.903-3.242-1.597 0-2.896 1.455-2.896 3.242v15.529c0 1.779 1.299 3.229 2.896 3.229 1.6 0 2.903-1.45 2.903-3.229v-.46h15.248v.408c0 1.779 1.302 3.229 2.905 3.229 1.602 0 2.905-1.45 2.905-3.229v-3.367c.035-.751-.113-1.366-.411-1.841.79-1.732.74-3.556-.173-5.183zm-18.799-2.724c.93 0 1.688.792 1.688 1.766 0 .965-.758 1.75-1.688 1.75-.929 0-1.685-.785-1.685-1.75 0-.974.756-1.766 1.685-1.766zm17.498 13.116c0 .699-.458 1.267-1.02 1.267-.563 0-1.021-.567-1.021-1.267v-2.37h-19.017v2.422c0 .698-.458 1.266-1.018 1.266-.557 0-1.011-.567-1.011-1.266v-15.529c0-.695.462-1.28 1.011-1.28.55 0 1.018.585 1.018 1.28v4.022l-.01.105.01.106v4.223l-.01.105.01.106v2.54h20.714c.099 0 .165.023.219.086.035.043.151.217.125.815v3.369zm-.133-6.242h-18.361c-.413 0-.689-.271-.689-.674 0-.384.308-.696.715-.696l.86-.026v-.011l.11.011c1.97 0 3.572-1.664 3.572-3.712l-.031-.327h.012c.004-.403.362-.801.723-.801.313 0 .58.206.666.516l.194.713 10.036-.002c.298.047 1.509.773 2.138 2.117.438.932.456 1.903.056 2.892zm0 0" fill="#206FAC" sketch:type="MSShapeGroup"/><path d="M28.772 95.327c-.946-1.688-2.625-2.821-3.596-2.821h-8.757c-.462-.754-1.265-1.227-2.17-1.227-.604 0-1.162.245-1.613.63-.654-.77-1.6-1.269-2.662-1.269-.608 0-1.172.174-1.675.459v-.857c0-1.786-1.303-3.242-2.903-3.242-1.597 0-2.896 1.455-2.896 3.242v15.529c0 1.779 1.299 3.229 2.896 3.229 1.6 0 2.903-1.45 2.903-3.229v-.46h15.248v.408c0 1.779 1.302 3.229 2.905 3.229 1.602 0 2.905-1.45 2.905-3.229v-3.367c.035-.751-.113-1.366-.411-1.841.79-1.732.74-3.556-.173-5.183zm-18.799-2.724c.93 0 1.688.792 1.688 1.766 0 .965-.758 1.75-1.688 1.75-.929 0-1.685-.785-1.685-1.75 0-.974.756-1.766 1.685-1.766zm17.498 13.116c0 .699-.458 1.267-1.02 1.267-.563 0-1.021-.567-1.021-1.267v-2.37h-19.017v2.422c0 .698-.458 1.266-1.018 1.266-.557 0-1.011-.567-1.011-1.266v-15.529c0-.695.462-1.28 1.011-1.28.55 0 1.018.585 1.018 1.28v4.022l-.01.105.01.106v4.223l-.01.105.01.106v2.54h20.714c.099 0 .165.023.219.086.035.043.151.217.125.815v3.369zm-.133-6.242h-18.361c-.413 0-.689-.271-.689-.674 0-.384.308-.696.715-.696l.86-.026v-.011l.11.011c1.97 0 3.572-1.664 3.572-3.712l-.031-.327h.012c.004-.403.362-.801.723-.801.313 0 .58.206.666.516l.194.713 10.036-.002c.298.047 1.509.773 2.138 2.117.438.932.456 1.903.056 2.892zm0 0" fill="#fff" sketch:type="MSShapeGroup"/><path d="M28.772 55.327c-.946-1.688-2.625-2.821-3.596-2.821h-8.757c-.462-.754-1.265-1.227-2.17-1.227-.604 0-1.162.245-1.613.63-.654-.77-1.6-1.269-2.662-1.269-.608 0-1.172.174-1.675.459v-.857c0-1.786-1.303-3.242-2.903-3.242-1.597 0-2.896 1.455-2.896 3.242v15.529c0 1.779 1.299 3.229 2.896 3.229 1.6 0 2.903-1.45 2.903-3.229v-.46h15.248v.408c0 1.779 1.302 3.229 2.905 3.229 1.602 0 2.905-1.45 2.905-3.229v-3.367c.035-.751-.113-1.366-.411-1.841.79-1.732.74-3.556-.173-5.183zm-18.799-2.724c.93 0 1.688.792 1.688 1.766 0 .965-.758 1.75-1.688 1.75-.929 0-1.685-.785-1.685-1.75 0-.974.756-1.766 1.685-1.766zm17.498 13.116c0 .699-.458 1.267-1.02 1.267-.563 0-1.021-.567-1.021-1.267v-2.37h-19.017v2.422c0 .698-.458 1.266-1.018 1.266-.557 0-1.011-.567-1.011-1.266v-15.529c0-.695.462-1.28 1.011-1.28.55 0 1.018.585 1.018 1.28v4.022l-.01.105.01.106v4.223l-.01.105.01.106v2.54h20.714c.099 0 .165.023.219.086.035.043.151.217.125.815v3.369zm-.133-6.242h-18.361c-.413 0-.689-.271-.689-.674 0-.384.308-.696.715-.696l.86-.026v-.011l.11.011c1.97 0 3.572-1.664 3.572-3.712l-.031-.327h.012c.004-.403.362-.801.723-.801.313 0 .58.206.666.516l.194.713 10.036-.002c.298.047 1.509.773 2.138 2.117.438.932.456 1.903.056 2.892zm0 0" fill="#67747C" sketch:type="MSShapeGroup"/><path d="M28.772 15.327c-.946-1.688-2.625-2.821-3.596-2.821h-8.757c-.462-.754-1.265-1.227-2.17-1.227-.604 0-1.162.245-1.613.63-.654-.77-1.6-1.269-2.662-1.269-.608 0-1.172.174-1.675.459v-.857c0-1.786-1.303-3.242-2.903-3.242-1.597 0-2.896 1.455-2.896 3.242v15.529c0 1.779 1.299 3.229 2.896 3.229 1.6 0 2.903-1.45 2.903-3.229v-.46h15.248v.408c0 1.779 1.302 3.229 2.905 3.229 1.602 0 2.905-1.45 2.905-3.229v-3.367c.035-.751-.113-1.366-.411-1.841.79-1.732.74-3.556-.173-5.183zm-18.799-2.724c.93 0 1.688.792 1.688 1.766 0 .965-.758 1.75-1.688 1.75-.929 0-1.685-.785-1.685-1.75 0-.974.756-1.766 1.685-1.766zm17.498 13.116c0 .699-.458 1.267-1.02 1.267-.563 0-1.021-.567-1.021-1.267v-2.37h-19.017v2.422c0 .698-.458 1.266-1.018 1.266-.557 0-1.011-.567-1.011-1.266v-15.529c0-.695.462-1.28 1.011-1.28.55 0 1.018.585 1.018 1.28v4.022l-.01.105.01.106v4.223l-.01.105.01.106v2.54h20.714c.099 0 .165.023.219.086.035.043.151.217.125.815v3.369zm-.133-6.242h-18.361c-.413 0-.689-.271-.689-.674 0-.384.308-.696.715-.696l.86-.026v-.011l.11.011c1.97 0 3.572-1.664 3.572-3.712l-.031-.327h.012c.004-.403.362-.801.723-.801.313 0 .58.206.666.516l.194.713 10.036-.002c.298.047 1.509.773 2.138 2.117.438.932.456 1.903.056 2.892zm0 0" fill="#3B444F" sketch:type="MSShapeGroup"/><path d="M28.772 175.327c-.946-1.688-2.625-2.821-3.596-2.821h-8.757c-.462-.754-1.265-1.227-2.17-1.227-.604 0-1.162.245-1.613.63-.654-.77-1.6-1.269-2.662-1.269-.608 0-1.172.174-1.675.459v-.857c0-1.786-1.303-3.242-2.903-3.242-1.597 0-2.896 1.455-2.896 3.242v15.529c0 1.779 1.299 3.229 2.896 3.229 1.6 0 2.903-1.45 2.903-3.229v-.46h15.248v.408c0 1.779 1.302 3.229 2.905 3.229 1.602 0 2.905-1.45 2.905-3.229v-3.367c.035-.751-.113-1.366-.411-1.841.79-1.732.74-3.556-.173-5.183zm-18.799-2.724c.93 0 1.688.792 1.688 1.766 0 .965-.758 1.75-1.688 1.75-.929 0-1.685-.785-1.685-1.75 0-.974.756-1.766 1.685-1.766zm17.498 13.116c0 .699-.458 1.267-1.02 1.267-.563 0-1.021-.567-1.021-1.267v-2.37h-19.017v2.422c0 .698-.458 1.266-1.018 1.266-.557 0-1.011-.567-1.011-1.266v-15.529c0-.695.462-1.28 1.011-1.28.55 0 1.018.585 1.018 1.28v4.022l-.01.105.01.106v4.223l-.01.105.01.106v2.54h20.714c.099 0 .165.023.219.086.035.043.151.217.125.815v3.369zm-.133-6.242h-18.361c-.413 0-.689-.271-.689-.674 0-.384.308-.696.715-.696l.86-.026v-.011l.11.011c1.97 0 3.572-1.664 3.572-3.712l-.031-.327h.012c.004-.403.362-.801.723-.801.313 0 .58.206.666.516l.194.713 10.036-.002c.298.047 1.509.773 2.138 2.117.438.932.456 1.903.056 2.892zm0 0" fill="#BF538D" sketch:type="MSShapeGroup"/></g></svg>
